!!!COM: Josephine Lang
!!!CNT: Deutsch
!!!TXO: Deutsch
!!!OTL: "Lied des Katers Hiddigeigei"
!!!LYR: Scheffel
!!!OPS: Op. 45
!!!ONM: No. 5
!!!ENC: Alyona Dzerbina, phrasing by LVH
!!!YOR: Josephine Lang: Selected Songs
!!!YOR: Da Capo Press, 1982
!!!ODT: 1870/
!!NB: Vocal melody only encoded.
**kern
*staff1
*clefG2
*k[b-]
*met(C)
*M4/4
*MM[Nicht schleppend]
4r
4r
=1
1r
=2
1r
=3
1r
=4
2r
{4.a
8a
=6
4a
4g
4.f
8e
=7
4g
4f
4.e
8d
=8
4c
4c
4.c
8c
=9
4d
4c}
{4.a
8a
=10
4.a
8g
4f
4e
=11
4g
4f
4.e
8d
=12
4c
4c
(4e
8d)
8c
=13
4c
4f}
{4.a
8bn
=14
4cc
4g
4.g
8bn
=15
4cc
4g
4.g
8a
=16
4b-
4g
4.a
8f
=17
8e
8f
4g}
{4.g
8bn
=18
4cc
4g
4.g
8a
=19
4b-
4g
4a
4a
=20
4.a
8g
4.f
8e
=21
4.a
8g
4.f
8e
=22
4g
4f}
4r
8r
{8f
=23
2.ff}
8r
{8f
=24
2f}
4r
{4f#
=25
(4cc
4f#
8g)}
8r
4r
=26
1r
=27
1r
=28:|!
1r
==
*-
